X:1
T:Ramonez moy
T:Nicolle des Celliers de Hesdin
T:Source : Livre premier contenant 29 chansons nouvelles à 4---Paris---P.Attaignant---1535. Editor : André Vierendeels (12/01/18). Notes : Original clefs : G2, C3, C3, F3 Original note values have been halved Editorial accidentals above the stave
T:Ramonez moy
T:©
T:©
T:©
T:©
T:©
T:©
C:Nicolle des Celliers de Hesdin
Z:©
%%score [ 1 [ 2 3 ] 4 ]
L:1/8
Q:1/4=120
M:2/2
K:F
V:1 treble nm="Soprano" snm="S"
V:2 treble-8 nm="Tenor 1" snm="T 1"
V:3 treble-8 nm="Tenor 2" snm="T 2"
V:4 bass nm="Bass" snm="B"
V:1
 z2 c2 cB A2 | F2 B3 A G2 | F2 c2 cB A2 | F2 B3 A G2 | F4 z4 | z2 c3 ccB | A2 F2 c4 | FGAF G4 | %8
w: Ra- mo- nez moy|ma che- mi- né-|e, ra- mo- nez moy|ma che- mi- né-|e,|ra- ma- nez la|moy hault et|bas, _ _ _ _|
 z2 F2 G4 | A2 A3 AAF | G2 A2 B4 | A2 G3 F F2- | F2 E2 F4 | z2 f4 e2 | d2 c2 z4 | z2 A3 B c2 | %16
w: hault et|bas, ra- mo- nez- la|moy hault et|_ _ _ _|* * bas,|u- ne|da- me,|la ma- ti-|
 d2 c4 f2 | f2 e2 d2 c2 | B2 AG A2 AB | c2 AB c2 F2 | z2 A2 B2 d2- | dc c4 B2 | c3 d cBAG | A4 z4 | %24
w: né- e, la|ma- ti- né- *|* * * e, ra- mo-|nez, ra- mo- nez moy|ma che- mi-|* * né- *||e,|
 z8 | z8 | f2 df e2 c2 | c2 Ac B2 A2 | A2 G2 G2 FE | D4 z2 F2 | G4 A2 F2 | G4 E4 | z4 c3 A | %33
w: ||di- soit de cha- leur,|di- soit de cha- leur|for- ce- né- * *|e, mon|a- my, mon|a- my,|pre- nons|
 B2 c2 G2 G2 | G2 A2 A2 F2 | z4 c3 A | B2 c2 G2 c2 | cB A2 F2 B2- | BA G2 F2 c2 | cB A2 F2 B2- | %40
w: nos es- batz pre-|nons nos es- batz|pre- nons|nos es- batz, ra-|mo- nez moy ma che-|* mi- né- e, ra-|mo- nez moy ma che-|
 BA G2 F4 | z4 z2 c2- | cccB A2 F2 | c4 FGAF | G4 z2 F2 | G4 A2 A2- | AAAF G2 A2 | B4 A2 G2- | %48
w: * mi- né- e,,|ra-|mo- nez la moy hault et|bas, st _ _ _|bas, hault|et bas, ra-|* mo- nez la moy hault|et- * *|
 GF F4 E2 | F8 |] %50
w: |bas.|
V:2
 z8 | z8 | z4 z2 f2 | fe d2 B2 c2- | cB A2 F4 | z2 A3 Bcc | d2 f2 g2 a2- | ag f4 e2 | f2 c3 dee | %9
w: ||Ra-|mo- nez moy ma che-|* mi- né- e,|ra- mo- nez la|moy hault et- *||bas, ra- mo- nez la|
 f2 c2 f4 | e4 z2 d2- | dcBB A2 F2 | c4 c4- | c4 z4 | z2 f4 e2 | d2 c4 f2 | e2 e2 fgaf | g2 a2 f4 | %18
w: moy hault et|ba, ra-|* mo- nez la moy hault|et bas,|_|u- ne|da- me, la|ma- ti- né- * * *|* * e,|
 z4 AB c2 | F4 f2 ff | e2 c2 d2 f2 | e3 f g4- | g4 z4 | f2 df e2 c2 | z4 g2 eg | f3 e d2 c2- | %26
w: ra- mo- nez|moy ma che- mi-|né- * * *|* * e,|_|di- soit de cha- leur,|di- soit de|cha- leur for- ce-|
 c2 B2 c4 | a2 fa g2 e2 | f2 d4 c2- | c2 B2 c4 | z2 e2 f4 | e2 g2 g4 | e2 f3 d e2 | f2 c2 z2 dd | %34
w: * né- e,|di- soit de cha- leur,|di- soit de|_ cha- leur|mon a-|my, mon a-|my, pre- nons nos|es- batz, pre- nons|
 e2 f2 d4 | c8 | z2 f3 d e2 | f2 c2 z4 | z8 | z2 f2 fe d2 | B2 c3 B A2 | F4 z2 A2- | ABcc d2 f2 | %43
w: nos es- *|batz,|pre- nons nos|es- batz||ra- mo- nez moy|ma che- mi- né-|e, ra-|mo- nez la moy hault et|
 g2 a3 g f2- | f2 e2 f2 c2- | cdee f2 c2 | f4 e4 | z2 d3 cBB | A2 F2 c4 | c8 |] %50
w: bas, hault _ _|_ et bas, ra-|* mo- nez la moy hault|et bas,|ra- mo- nez la|moy hault et|bas.|
V:3
 z4 z2 f2 | fe d2 B2 c2- | cB A2 F4 | z8 | FFFG A2 F2 | c4 F2 f2- | fedd c2 c2 | f4 c4- | c4 z4 | %9
w: Ra-|mo- nez moy ma che-|* mi- né- e,||ra- mo- nez la mooy hault|et bas, ra-|* mo- nez la moy hault|et bas,|_|
 FFFG A2 F2 | c4 F2 f2- | fedd c2 A2 | G4 F4- | F4 z4 | z2 A2 B2 c2 | F4 z2 A2 | B2 c2 d4 | %17
w: ra- mo- nez la moy hault|et bas, ra-|* mo- nez la moy hault|et bas,|_|u- ne da-|me la|ma- ti- né-|
 c4 z2 A2 | B2 c2 F4 | z2 A4 B2 | c2 F4 A2 | B2 c2 d4 | c6 F2 | F4 z4 | f2 df e2 c2 | z8 | %26
w: e, ra-|mo- nez moy,|ra- mo-|nez moy ma|che- mi- né-||e,|di- soit de cha- leur||
 z4 g2 eg | f3 e d2 c2 | c2 B2 c4 | z2 G2 A4 | c4 z2 c2 | c4 c4 | z8 | z2 c3 A B2 | c2 F2 f3 d | %35
w: di- soit de|cha- leur for- ce-|né- * e,|mon a-|my, mon|a- my,||pre- nons nos|es- batz, pre- nons|
 e2 f2 FGAF | G2 F2 z4 | z2 f2 fe d2 | B2 c3 B A2 | F4 z4 | z4 FFFG | A2 F2 c4 | F2 f3 edd | %43
w: nos es- * * * *|* batz,|ra- mo- nez moy|ma che- mi- né-|e,|ra- mo- nez la|moy hault et|bas, ra- mo- nez la|
 c2 c2 f4 | c8 | z4 FFFG | A2 F2 c4 | F2 f3 edd | c2 A2 G4 | F8 |] %50
w: moy hault et|bas,|ra- mo- nez la|moy hault et|bas, ra- mo- nez la|moy hault et|bas.|
V:4
 C2 CB, A,2 F,2 | B,3 A, G,2 C,2 | F,2 F,G, A,2 F,2 | B,3 A, G,2 C,2 | z2 C3 CCB, | %5
w: Ra- mo- nez moy ma|che- mi- né- e,|ra- mo- nez moy ma|che- mi- né- e,|ra- mo- nez la|
 A,2 F,2 C2 F,2 | z8 | z4 z2 C,2 | F,4 C,2 C2- | CB,A,G, F,2 D,2 | C,4 B,,4 | z2 B,,2 F,4 | %12
w: moy hault et bas||hault|et bas, ra-|* mo- nez la moy hault|et bas,|hault et|
 C,4 z4 | A,4 B,2 C2 | F,4 z2 A,2- | A,B, C2 F,4 | z8 | z2 A,2 B,2 C2 | D2 C2 z2 A,2- | %19
w: bas,|u- ne da-|me u-|* ne da- me,||la ma- ti-|né- e, ra-|
 A,B, C2 F,2 z D, | E,2 F,2 B,,2 F,2 | G,2 A,2 G,4 | C,4 F,4 | z4 C2 A,C | B,3 A, G,2 CB, | %25
w: * mo- nez moy, ra-|mo- nez moy ma|che- mi- né-|* e,|di- soit de|cha- leur for- ce- *|
 A,G, F,4 E,2 | D,4 C,4 | F,2 F,F, G,2 A,2 | F,2 G,2 E,2 F,2 | G,4 F,4 | z2 C,2 F,4 | C,4 z2 C2 | %32
w: |né- e,|di- soit de cha- leur|for- ce- né- *|* e,|mon a-|my, mon|
 C2 B,2 A,3 C | B,2 A,2 G,4 | z2 C3 A, B,2 | C2 F,2 z4 | z4 C2 CB, | A,2 F,2 B,3 A, | %38
w: a- my, pre- nons|nos es- batz,|pre- nons nos|es- batz,|ra- mo- nez|moy ma che- mi-|
 G,2 C,2 F,2 F,G, | A,2 F,2 B,3 A, | G,2 C,2 z2 C2- | CCCB, A,2 F,2 | C2 F,2 z4 | z8 | z2 C,2 F,4 | %45
w: né- e, ra- mo- nez|moy ma che- mi-|né- e, ra-|* mo- nez la moy hault|et bas,||hault et|
 C,2 C3 B,A,G, | F,2 D,2 C,4 | B,,4 z2 B,,2 | F,4 C,2 C,2 | F,4 F,4 |] %50
w: bas, ra- mo- nez la|moy hault et|bas, hault|et bas, hault|et bas.|

